X: 1749
T: Sevdi Canım
C: Kömürcüzâde Hâfız Mehmed Ef.
O: Turkey
F: http://compmusic.upf.edu/node/140
N: saba--sarki--agiraksak--sevdi_canim--komurcuzade_hafiz_mehmet_efendi
N: makam= saba
N: form= sarki
N: usul= agiraksak = 9/4
M: 9/4
L: 1/16
K: C _2/4B _3/4d  
Q: 1/4=66
%%MIDI tuningsystem comma53
z2G4A2 A6G2 z2_7/8dc _1/4B2d2 B2c6 cdef  | \
w:   | 
_7/8agfe e_7/8ddc z2_1/4Bd c2d2 d3c c3B c2BA A8  | 
w:   | 
a3g g3f f3e e3_7/8d d2cd c2_1/4B2 B2A4G2 d3B  | \
w:   | 
_1/4B2c6 c2_7/8d2 c2B2 A3G e2dc B2c6 =d2cd  | 
w:   | 
e8 z2e=d ^c2d2 e4 efed z2e^f g2a2 agg=f  | \
w:   | 
fee_7/8d dcc_1/4B z2cd c2d2 d3c c3B c2BA A4 z4  | 
w:   | 
c_1/4BBA B2c2 B2_7/8d4cB dcBA G4 z2cd e2dc c3B  | 
w:   | 
_1/4B2c4BA A2B4AG AB_7/8dc cBBA A4 z4 e=d^cd  | 
w:   | 
e3f e=de2 z2ed ^c2d2 e8 ^f4 g4 f2e2  | \
w:   | 
^f2g2 f2a2 a3g f3e e3=d eddc c4 a4 a3g  | 
w:   | 
g3f f3e e3_7/8d d2cd c2_1/4B2 B2A4G2 d3B B2c6 c2d2 c2B2 A3G e2dc B2c6 =d2cd e8 z2ed ^c2d2 e4 efed z2e^f g2a2 agg=f fee_7/8d  | 
w:   | 
_7/8dcc_1/4B z2cd c2d2 d3c c3B c2BA A4 z4 cBBA  | 
w:   | 
_1/4B2c2 B2_7/8d4cB dcBA G4 z2cd e2dc c3B B2c4BA A2B4AG ABdc cBBA A4 z4 e=d^cd e3f  | 
w:   | 
e=de2 z2ed ^c2d2 e8 ^f4 g4 f2e2 f2g2  | \
w:   | 
^f2a2 a3g f3e e3=d eddc c4 a4 a3g g3=f  | 
w:   | 
f3e e3_7/8d d2cd c2_1/4B2 B2A4G2 d3B B2c6  | \
w:   | 
c2_7/8d2 c2_1/4B2 A3G e2dc B2c6 =d2cd |
w:   | 


